src/_assets/sidebar/foot4.svg

<svg width="30" height="30" viewBox="0 0 30 30" fill="none" xmlns="http://www.w3.org/2000/svg">
<path d="M15 14C12.3167 14 10.1458 13.5917 8.4875 12.775C6.82917 11.9583 6 11.0333 6 10C6 8.95 6.82917 8.02083 8.4875 7.2125C10.1458 6.40417 12.3167 6 15 6C17.6833 6 19.8542 6.40417 21.5125 7.2125C23.1708 8.02083 24 8.95 24 10C24 11.0333 23.1708 11.9583 21.5125 12.775C19.8542 13.5917 17.6833 14 15 14ZM15 19C12.5667 19 10.4583 18.6333 8.675 17.9C6.89167 17.1667 6 16.2833 6 15.25V12.75C6 13.4 6.3125 13.9625 6.9375 14.4375C7.5625 14.9125 8.3375 15.3042 9.2625 15.6125C10.1875 15.9208 11.1708 16.1458 12.2125 16.2875C13.2542 16.4292 14.1833 16.5 15 16.5C15.8333 16.5 16.7667 16.4292 17.8 16.2875C18.8333 16.1458 19.8125 15.925 20.7375 15.625C21.6625 15.325 22.4375 14.9375 23.0625 14.4625C23.6875 13.9875 24 13.4167 24 12.75V15.25C24 16.2833 23.1083 17.1667 21.325 17.9C19.5417 18.6333 17.4333 19 15 19ZM15 24C12.5667 24 10.4583 23.6333 8.675 22.9C6.89167 22.1667 6 21.2833 6 20.25V17.75C6 18.4 6.3125 18.9625 6.9375 19.4375C7.5625 19.9125 8.3375 20.3042 9.2625 20.6125C10.1875 20.9208 11.1708 21.1458 12.2125 21.2875C13.2542 21.4292 14.1833 21.5 15 21.5C15.8333 21.5 16.7667 21.4292 17.8 21.2875C18.8333 21.1458 19.8125 20.925 20.7375 20.625C21.6625 20.325 22.4375 19.9375 23.0625 19.4625C23.6875 18.9875 24 18.4167 24 17.75V20.25C24 21.2833 23.1083 22.1667 21.325 22.9C19.5417 23.6333 17.4333 24 15 24Z" fill="#7F57FF"/>
</svg>

<svg xmlns="http://www.w3.org/2000/svg" width="30" height="30" fill="none"><path fill="#7F57FF" d="M15 14q-4.025 0-6.512-1.225Q6 11.55 6 10q0-1.576 2.488-2.787Q10.975 6 15 6t6.512 1.213Q24 8.425 24 10q0 1.55-2.488 2.775T15 14m0 5q-3.65 0-6.325-1.1T6 15.25v-2.5q0 .975.938 1.688.938.711 2.324 1.175a16.2 16.2 0 0 0 2.95.675q1.563.212 2.788.212 1.25 0 2.8-.212a17 17 0 0 0 2.938-.663q1.388-.45 2.325-1.162T24 12.75v2.5q0 1.55-2.675 2.65T15 19m0 5q-3.65 0-6.325-1.1T6 20.25v-2.5q0 .974.938 1.688.938.712 2.324 1.175a16.2 16.2 0 0 0 2.95.675q1.563.212 2.788.212 1.25 0 2.8-.212a17 17 0 0 0 2.938-.663q1.388-.45 2.325-1.163.937-.711.937-1.712v2.5q0 1.55-2.675 2.65T15 24"/></svg>
